X:0997
M:C
L:1/8
Q:1/4=90 "Slow"
K:E Minor
g>a|(ba)(ge) (dB)(ge)|     (dB)(AG)   A2 (g>f)|(ef/g/) d>e  (Bg)AB |G2TF2 ({EF}E2):|
g>a|(bd)(BG)        (g>ab)G        |(Bd)(ed)              (B/A/B/g/) (BG)   |\
    (ef/g/) (fg/a/) (ga/b/) (fg/a/)|(gf/g/)    (e/g/^d/f/) e2        (ef/g/)|
     BG(Bd)         (ed)    Bg     |(e/d/c/B/) (c/B/A/G/)  A2         B>d   |\
    (eB)(ge)       (^dc/B/) eA     | G>B        A/G/F/G/   E2              :|

